X: 30869
T: Out On The Ocean
R: jig
M: 6/8
K: Amajor
E|Ecc cBA|ceA B3|AFE A2B|cee AFE|
Ecc cBA|ceA B3|AFE A2B|cAA A2F|
E3 cBA|ceA B3|AFE A2B|cee AFE|
Ecc Ecc|ceA B3|AFE A2B|cAA Ace||
f3 fec|f3 fec|efe ecB|efe ecB|
A2B c2e|f3 ecB|AFE A2B|cAA Ace|
f3 fec|f3 fec|efe ece|a2f ecB|
A2B c2e|.f.f.f ecB|AFE A2B|cAA A2F||

